images/HBO_Logo.svg

<svg fill="none" height="1030" viewBox="0 0 2500 1030" width="2500" xmlns="http://www.w3.org/2000/svg"><path clip-rule="evenodd" d="m1989.71 714.379c108.93 0 201.16-89.889 201.16-202.222 0-112.343-92.23-201.089-201.16-201.089-112.26 0-202.22 88.746-202.22 201.087 0 112.335 89.96 202.221 202.22 202.221m-256.15-202.221c0-141.538 114.61-256.078 256.15-256.078 141.62 0 256.08 114.537 256.08 256.078 0 142.604-114.46 257.291-256.08 257.291-141.54 0-256.15-114.687-256.15-257.291zm-359.31 0c32.46-2.305 85.33-39.29 105.51-61.744-7.89 26.925-7.89 112.263 0 139.266-22.45-32.542-73.05-71.906-105.51-77.522zm-184.25-270.641c40.43 0 72.97 39.292 72.97 84.27 0 44.831-32.54 84.275-72.97 84.275h-139.42v-168.548zm0 378.425c40.43 0 72.97 39.372 72.97 84.277 0 47.25-32.54 86.47-72.97 86.47h-139.42v-170.747zm799.71 410.061c280.81 0 509.96-233.628 509.96-517.845 0-288.694-229.15-512.155-509.96-512.155-284.14 0-427.96 206.62-462.7 290.891 0-124.702-124.78-274.053-269.65-274.053h-468.391v1008.692h435.771c177.49 0 302.27-151.706 302.27-284.226 39.29 82.003 178.56 288.696 462.7 288.696m-1256.796-4.49h-274.132v-390.948h-177.571v390.948h-280.880434v-1008.6894h280.880434v376.2284h177.571v-376.2259h274.132z" fill="#fff" fill-rule="evenodd"/></svg>

<svg width="2500" height="1030" viewBox="0 0 2500 1030" fill="none" xmlns="http://www.w3.org/2000/svg">
<path fill-rule="evenodd" clip-rule="evenodd" d="M1989.71 714.379C2098.64 714.379 2190.87 624.49 2190.87 512.157C2190.87 399.814 2098.64 311.068 1989.71 311.068C1877.45 311.068 1787.49 399.814 1787.49 512.155C1787.49 624.49 1877.45 714.376 1989.71 714.376M1733.56 512.155C1733.56 370.617 1848.17 256.077 1989.71 256.077C2131.33 256.077 2245.79 370.614 2245.79 512.155C2245.79 654.759 2131.33 769.446 1989.71 769.446C1848.17 769.446 1733.56 654.759 1733.56 512.155ZM1374.25 512.155C1406.71 509.85 1459.58 472.865 1479.76 450.411C1471.87 477.336 1471.87 562.674 1479.76 589.677C1457.31 557.135 1406.71 517.771 1374.25 512.155ZM1190 241.514C1230.43 241.514 1262.97 280.806 1262.97 325.784C1262.97 370.615 1230.43 410.059 1190 410.059H1050.58V241.511L1190 241.514ZM1190 619.939C1230.43 619.939 1262.97 659.311 1262.97 704.216C1262.97 751.466 1230.43 790.686 1190 790.686H1050.58V619.939H1190ZM1989.71 1030C2270.52 1030 2499.67 796.372 2499.67 512.155C2499.67 223.461 2270.52 0 1989.71 0C1705.57 0 1561.75 206.62 1527.01 290.891C1527.01 166.189 1402.23 16.838 1257.36 16.838H788.969V1025.53H1224.74C1402.23 1025.53 1527.01 873.824 1527.01 741.304C1566.3 823.307 1705.57 1030 1989.71 1030M732.914 1025.51H458.782V634.562H281.211V1025.51H0.330566V16.8206H281.211V393.049H458.782V16.8231H732.914V1025.51Z" fill="white"/>
</svg>
